X:1
T:Lady Gay
M:4/4
L:1/8
K:Eb
 z2 B,2 C2 E2| G8-| GF GFE-C B,2| C8-|
M:2/4
 C2E-F| G2c-B|G-F G2| B8-| B2 F2| G2 cB| G8-| G2 FG| B2G-F| E8-| E6|\
 F2 G6| G2
M:2/4
|E-C B,2|
M:4/4
 C8-| C8|
